X: 39996
T: Three Little Boats
R: slide
M: 12/8
K: Bminor
|:FBB B2 c|d2 d c3|dBB B3|cFF F3|
FBB B2 c|d2 e f3|f2 f edc|B3 B3:|
|:dcB B2 c|d2 e f3|gfe f3|gfe f3|
d2 c Bcc|dde f3|gfe fec|B3 B3:|

